X:1
T:England
T:England
T:Music by C Hubert H Parry
T:Words paraphrased from Shakespere by Sir Esme Howard
C:C Hubert H Parry
Z:Sir Esme Howard/Shakespeare
%%score 1 { ( 2 4 ) | ( 3 5 ) }
L:1/8
Q:1/4=50
M:4/4
K:G
V:1 treble nm="Voice" snm="Vo."
V:2 treble nm="Piano" snm="Pno."
V:4 treble 
V:3 bass 
V:5 bass 
V:1
"^Slow, massively and with expression." z8 | z8 | z8 |"^Chorus - all voices" z8 | %4
w: ||||
!f!!<(! d2 e d B3/2 A/ G B!<)! |!<(! E3 F!<)!!>(! !>!A2 G!>)!!<(! G | c3 B A F!<)! G B | A3 E F4 | %8
w: This roy- al throne of Kings, this|scep- tred is- land, this|earth of ma- jes- ty, this|seat of Mars,|
 B2 c!<(! B E3"^allargando"[Q:1/4=48] F | A G c B e2!<)!!f! E B | %10
w: This for- tress, built by|Nat- ture for her pur- pose, A-|
 !>!d2 c2 B F"^rit."[Q:1/4=46] G B |!<(!!>(! D3 A"^a tempo"[Q:1/4=50] G4!<)!!>)! | z8 | %13
w: gainst in- fect- tion and the|hand of wars:||
"^poco rit." z8[Q:1/4=47] |"^a tempo"!p![Q:1/4=50] d2 e d B3/2 A/ GB |!<(! E3 F A2 G!<)! G | %16
w: |This de- mi Pa- ra- dise, this|o- ther E- den, This|
!<(! c3 B (AF)!<)! G A/!>(! B/ | A3 E!>)!!p! F4 | B2 c B E3 !tenuto!F | %19
w: pre- cious sto- ne set in a|sil- ver sea,|This bless- ed plot, this|
!<(! !tenuto!A !tenuto!G"^allargando molto"[Q:1/4=48] !tenuto!c !tenuto!B e2!<)! E B | %20
w: earth, this realm, this Eng- land, We|
 !>!d2!>(! c2 B3/2 F/ G!>)!"^rit."[Q:1/4=46] B | D3 A"^a tempo"[Q:1/4=50] G4 | z8 | z8[Q:1/4=46] | %24
w: high- ly de- di- cate, O|Lord, to Thee.|||
!mf!"^a tempo"[Q:1/4=50] d2 e d B3/2 A/ GB |!<(! E3 F A2!<)! G G |!<(! c3 B A F G B | %27
w: Grant, Lord, that Eng- land and her|sis- ter na- tions, To|ge- ther bound by the tri-|
 !>!A3!<)! E F4 |"^molto cresc." B2 c B E3 F |"^allargando"[Q:1/4=48]!<(! A G c B!<)!!ff! e2 E B | %30
w: um- phant sea,|May be re- nown'd through|all re- cord- ed a- ges For|
 !tenuto!d2 c2 !tenuto!B !tenuto!F !tenuto!G !tenuto!B | %31
w: Chris- tian ser- vice and true|
"^rit."[Q:1/4=46] !tenuto!D3 !tenuto!A"^a tempo"[Q:1/4=50] !tenuto!G4- | %32
w: chi- val- ry.-|
 !tenuto!G2 z2"^rit." z4[Q:1/4=46] | !fermata!z8 |] %34
w: ||
V:2
!mf!!<(! ([Bdg]2 [cda]!<)!!>(![Bdg] [GBd])!>)! (!tenuto![DGB] !tenuto![GAc]!<(!!tenuto![=FBd]) | %1
 ([Ee]2 [Ff]2!<)! [DB]) (!tenuto![DB]!tenuto![EB^c]!tenuto![FBd]) | %2
 [B,DF]2 ((!>![DFB-]2 [DFB])) (!tenuto![Ec]!tenuto![DB]!tenuto![CA] | %3
 [B,DGB]) .D (E.D) (A.G) (B.A) |!f! [DGBd]2 ([Ee][Dd]) ([DB]>[CA] [B,EG])[B,FB] | %5
 (E3 [^DF]) (!>![CDA]2 [B,EG])[B,EG] | (!tenuto![CGc]3 [DGB] [CEA][A,CF] [G,B,G])[^CGB] | %7
 ([FA]3 E [DF])(FAE) | (^DF) z [B,EB] (E3 [CDF]) | ([FA][EG]) ([Cc][B,B]) ([Ge]2 E)[^GB] | %10
 ([Bd]2 [Ac]2 BF GB) |!<(! (DE!<)!!>(!GF!>)!!<(! [B,G])!tenuto!G!tenuto!d!tenuto![Gce]!<)! | %12
!mf! ([Bdg]2 [cda][Bdg] [GBd])!mf! (!tenuto!B!tenuto![Ac]!tenuto![Bd]) | %13
 (!tenuto![Ee]2 !tenuto![Ff]2!f! [DB]) ([Fd]!mf! [DB]!mp![C=A]) | [DG](de)d (B>A [EG])[GB] | %15
 ([G,E]3 [^DF]) ([CDA]2 [B,EG])[B,EG] |!<(! [Gc](efg) c2!<)! (Be) | %17
 ((Af) e2 [DFd])([Afa] [Ff][Ee]) | ([B^d]B cB) (E3 F) | %19
 !tenuto!A!tenuto!G !tenuto![Cc]!tenuto![B,B] (!>![Ge]2 [G,E])[^G,EB] | %20
 ([DBd]2 [CAc]2) (B>F [EG])[GB] | D([B,G] c/B/A !>!G)!<(!([Ec][DB])[Ae]!<)! | %22
!mf! ([Bdg]2 [cda][Bdg] [GBd]) !tenuto![DB]!<(!!tenuto![GAc]!tenuto![=FBd] | %23
 (!tenuto![Ee]2 !tenuto![Ef]2!<)! [DB])"^rit." !>!dB[F=A] | %24
 [DG]2 ([Ee][Dd]) ([DB]>[Cc] [B,G][B,GB]) | ([G,E]DC^D) ((!>![A,DF]2 [B,EG])) [B,EG] | %26
!<(! ([Cc]3 B A)(FGB)!<)! | ([Dc]3!<(! E) (FGA!<)!^A) | (B2 cB) (EBe)f | %29
!<(! [Aa][Gg] [cc'][Bb]!<)!!ff! [ege'] (!>![Geg]2 [^Gd^g]) | %30
 (!tenuto![Bdeb]2 [Aca][Ee] .[^DB^d]) [Bb]2 [^ceb^c'] | %31
 ([dgbd'][Bb] [FAd]).[Fcf] !>![GBg]!<(! (((([GB][GBd]))))[GAe]!<)! | %32
!ff! !>![GBdg]2!<(! !tenuto![Aa]!tenuto![Gg] !tenuto![Aa]!tenuto![Gg]!tenuto![Bb]!tenuto![Aa]!<)! | %33
 [dgbd']8 |] %34
V:3
 ([B,DG]2 [CDA][B,DG] [G,B,D]) (!tenuto![F,G,B,] !tenuto![E,G,C]!tenuto![D,G,]) | %1
 ([C,G,C]2 [F,,,F,,]2 [B,,,B,,]) (!tenuto![D,B,]!tenuto![E,B,^C]!tenuto![F,B,D]) | %2
 z (!tenuto![B,,,B,,]!tenuto![^C,,^C,]!tenuto![D,,D,]) [D,,,D,,]2 [D,,D,]2 | %3
 [G,,,G,,] .D, (E,.D,)!<(! (A,.G,) (B,.A,)!<)! | [D,G,B,]2 ([B,,,B,,]2 [D,,D,]2 [E,,E,])[D,,D,] | %5
!<(! ([C,,C,][B,,,B,,] [A,,,A,,]2)!<)!!>(! !>![E,,,E,,](([A,,F,] [B,,G,]))[E,,E,]!>)! | %6
!<(! ([A,,,A,,]2 [B,,,B,,]2 [C,,C,][D,,D,]!<)! [E,,E,]2) | ([F,,F,]2 [E,,E,]2 [D,,D,]2 [C,,C,]2) | %8
!<(! [B,,,B,,]2 [G,,,G,,]2 [C,,C,]2 [A,,,A,,]2 | %9
 [E,,,E,,]2 [D,,D,]2!<)!!f! z [C,E,G,C]2 [B,,,B,,] | %10
 [A,,,A,,]3 [A,,,A,,] [B,,,B,,][B,,^D,F,]"^rit." [E,,E,][E,=G,B,] | %11
 [D,,D,]4"^a tempo" [G,,,G,,]3 [CE] | %12
!<(! ([B,DG]2 [CDA]!<)!!>(![B,DG] [G,B,D])!>)! [F,G,][E,G,]D, | %13
!<(! [C,G,C]2 ([F,,F,]2!<)!"^poco rit." [B,,B,]2)!>(! [D,,D,]2!>)! | %14
!p!"^a tempo" ([G,,G,]2 [B,,,B,,]2 [D,,D,]2 [E,,E,][D,,D,]) | %15
!<(! ([C,,C,][B,,,B,,] [A,,,A,,])[^D,F,A,] (E,,[D,F,] [E,G,]2)!<)! | %16
 ([A,,,A,,]3 [B,,,B,,]) ([C,,C,][D,,D,] [E,,E,][G,,G,]) | %17
 ([F,,F,][F,,,F,,] [A,,,A,,]2) ([D,,D,]2 [C,,C,]2) | %18
 [B,,,B,,]([B,,B,] [G,,G,])[G,,,G,,] [C,,C,]([C,C][A,,A,])([A,,,A,,] | %19
!<(! !>![E,,E,]2) !>![D,,D,]2!<)!!ff! (!>![C,,C,]3 [B,,,B,,]) | %20
 A,,!>(!([E,^G,] [A,,E,A,])[A,,,A,,] ([B,,,B,,][B,,F,] [E,,E,])!>)!"^rit."[E,=G,] | %21
 ([D,,D,]4"^a tempo" [G,,,G,,]3) [CE] | %22
!<(! ([B,DG]2 [CDA]!<)!!>(![B,DG] [G,B,D])!>)! !tenuto![F,,F,]!tenuto![E,,E,]!tenuto![D,,D,] | %23
 !tenuto![C,,C,]2 !tenuto![F,,,F,,]2 !tenuto![B,,,B,,]2"^rit." [D,,D,]2 | %24
!mf!"^a tempo" ([G,,G,]2 [B,,,B,,]2 [D,,D,]2 [E,,E,][D,,D,]) | %25
!<(! ([C,,C,]2 [A,,,A,,]2) [E,,E,]3!<)! [E,,E,] | ([A,,,A,,]2 [B,,,B,,]2 [C,,C,][D,,D,] [E,,E,]2) | %27
 ([F,,F,][G,,G,] [G,,A,]2) ([D,,D,]2 [=C,,=C,]2) | %28
 [B,,,B,,]"^molto cresc."([B,,B,] [A,,A,])([A,,,A,,] [G,,,G,,]) [G,,G,]2 [G,,G,] | %29
 !>![E,,E,][E,G,B,] !>![D,,D,][=F,B,=F] C,([E,G,C][G,CE]) B,, | %30
 z ([B,,^G,] [C,A,]2) B,,[F,B,^D] [E,,E,][=G,B,^CE] | %31
"^rit." D,([B,D] [A,D]).[D,CD]"^a tempo" z ((([G,B,][G,B,D])))[CE] | %32
 G,[G,B,D] E,[E,CE] B,,[D,G,D] C,[G,CE] | z2 !fermata![D,G,B,D]6 |] %34
V:4
 x8 | cB ^A[E^c] x4 | x4 x2 F2 | x2 [G,B,]2 [B,D]2 [CEG]2 | x2 [GB]2 F2 x2 | G,2 C2 x4 | x8 | %7
 D(A,D^C) A, A,2 A, | B,2 x2 A,B,CA, | B,2 =F2 E3 E | E4 [^DF]D [B,E][^CG] | DB, [A,C]2 x4 | %12
 x4 x G2 =F | cB ^A[E^c] x2 F2 | B, [GB]2 [DG] [DF]>C B,[B,G] | ED [A,C]2 x4 | %16
 E [Gc]2 [Gd] [EA][CF] [B,G][^CA]/!>(!B/ | [DA]3 [^CG]!>)! x2 A2 | [^DF]2 [EG]2 (E2 C2) | %19
 [B,E]2 [FG]2 EC x2 | x4 [B,^DF]2 B,^C | x2 [A,G][CF] [B,DG] G2 G | x8 | %23
 dB ^A!>(!^c x [DF]2!>)! C | B,2 G2 F2 x2 | x2 A,2 x4 | GF([DA][DG]) [CE]CB,[^CG] | %27
 A,B,D^C [A,D]2 FE | [^DF]3 [DF] E3 [F^d] | e2 =f2 x4 | x4 x ([^df][eg]) x | x8 | %32
 x2 [ce]2 d2 [eg]2 | x8 |] %34
V:5
 x8 | x8 | x8 | x2 [G,,B,,]2 [B,,D,]2 [E,G,]2 | x8 | x8 | x8 | x8 | x8 | x4 [C,,C,]3 x | %10
 z (([B,,^G,] [C,A,]2)) x4 | x8 | x4 x (!tenuto!B,!tenuto!C!tenuto!G,) | x8 | x8 | %15
 x4 [E,,,E,,]3 [E,,E,] | x8 | x8 | x8 | x8 | A,,,3 A,,, x4 | x8 | x8 | x8 | x8 | x8 | x8 | x8 | %28
 x8 | x4 !>!C,,3 B,,, | [A,,,A,,]3 [A,,,A,,] [B,,,B,,]2 E,,2 | [D,,D,]3 z [G,,,G,,]4 | %32
 !tenuto![G,,G,]2 !tenuto![E,,E,]2 !tenuto![B,,,B,,]2 !tenuto![C,,C,]2 | !fermata![G,,,G,,]8 |] %34

